usr/share/icons/big-icons/symbolic/actions/user-group-properties.svg

<svg xmlns="http://www.w3.org/2000/svg" viewBox="0 0 16 16">
<defs id="defs3051">
<style id="current-color-scheme" type="text/css">
.ColorScheme-Text{color:#fcfcfc}
</style>
</defs>
<path d="M9 2v1h5V2zM5.5 4A2.5 2.5 0 0 0 3 6.5 2.5 2.5 0 0 0 5.5 9 2.5 2.5 0 0 0 8 6.5 2.5 2.5 0 0 0 5.5 4M9 5v1h5V5zm0 3v1h5V8zm-3.5 2A3.5 4 0 0 0 2 14h7a3.5 4 0 0 0-3.5-4m0 1a2.5 3 0 0 1 2.354 2H3.146A2.5 3 0 0 1 5.5 11" class="ColorScheme-Text" style="fill:currentColor;fill-opacity:1;stroke:none"/>
</svg>

<svg xmlns="http://www.w3.org/2000/svg" viewBox="0 0 16 16">
  <defs id="defs3051">
    <style type="text/css" id="current-color-scheme">
      .ColorScheme-Text {
        color:#eff0f1;
      }
      </style>
  </defs>
 <path 
     style="fill:currentColor;fill-opacity:1;stroke:none" 
     d="M 9 2 L 9 3 L 14 3 L 14 2 L 9 2 z M 5.5 4 A 2.5 2.5 0 0 0 3 6.5 A 2.5 2.5 0 0 0 5.5 9 A 2.5 2.5 0 0 0 8 6.5 A 2.5 2.5 0 0 0 5.5 4 z M 9 5 L 9 6 L 14 6 L 14 5 L 9 5 z M 9 8 L 9 9 L 14 9 L 14 8 L 9 8 z M 5.5 10 A 3.499998 4 0 0 0 2 14 L 9 14 A 3.499998 4 0 0 0 5.5 10 z M 5.5 11 A 2.5 3 0 0 1 7.8535156 13 L 3.1464844 13 A 2.5 3 0 0 1 5.5 11 z "
     class="ColorScheme-Text"/>
</svg>
